app/dist/common/images/huaan-securities.svg

<svg height="18" viewBox="0 0 18 18" width="18" xmlns="http://www.w3.org/2000/svg"><path d="m0 0h18v18h-18z" fill="#d7011d"/><path d="m8 4v2h2v-2h4v10h-4v-2h-2v2h-4v-10zm-1 8v1h-2v-8h2v1h-1v2h2v-1h2v1h1v2h-1v1h-2v-1h-2v2zm.33-1h-.33v.33h-.33v-.66h.66zm3.67 1v1h2v-8h-2v1h1v2h-1v2h1v2zm0-1.33h.33v.66h-.33zm0 0v.33h-.33v-.33zm0-3.34h.33v-.66h-.33zm-.33-.33v.33h.33v-.33zm-3.67-.33v.33h.33v.33h-.66v-.66z" fill="#fff" fill-rule="evenodd"/></svg>

<!-- by TradingView --><svg width="18" height="18" viewBox="0 0 18 18" xmlns="http://www.w3.org/2000/svg"><path fill="#D7011D" d="M0 0h18v18H0z"/><path fill-rule="evenodd" d="M8 4v2h2V4h4v10h-4v-2H8v2H4V4h4Zm-1 8v1H5V5h2v1H6v2h2V7h2v1h1v2h-1v1H8v-1H6v2h1Zm.33-1H7v.33h-.33v-.66h.66V11ZM11 12v1h2V5h-2v1h1v2h-1v2h1v2h-1Zm0-1.33h.33v.66H11v-.66Zm0 0V11h-.33v-.33H11Zm0-3.34h.33v-.66H11v.66ZM10.67 7v.33H11V7h-.33ZM7 6.67V7h.33v.33h-.66v-.66H7Z" fill="#fff"/></svg>
